!!!OTL: 1795. Holdes Gruen.
!!!ODT: 1890
!!!ARE: Europa, Mitteleuropa, Deutschland, Hessen, Wetterau, Bettenhausen
!!!SCT: E1795A
!!!TXL: @@DE
!!!YEM: Copyright 1995, estate of Helmut Schaffrath.
**kern	**text
*ICvox	*
*M3/4	*
*k[f#c#]	*
*D:	*
!LO:TX:a:t=Aus der Wetterau (Bettenhauſen) 1890.	!
{8d	Hol-
8e	-des
=1	=1
4.f#	Grün,
8a	wie
8a	lieb
8f#	ich
=2	=2
4e	dich,
4r}	.
{8e	un-
8f#	-ter
=3	=3
8gL	al-
8bJ	.
4b	-len
8.a	Far-
16g	-ben
=4	=4
4f#	dich!
4r}	.
{8d	Denn
8f#	du
=5	=5
8a	biſt,
8f#	ſo
8a	wahr
8f#	ich
8a	Weidmann
8dd	.
=6	=6
4b	bin,
4r}	.
{8dd	al-
8b	-ler
=7	=7
(4a	Far-
8b/)	.
8a	-ben
8g	Kö-
8a	-ni-
=8	=8
4f#	-gin.
4r}	.
{8d	Denn
8f#	du
=9	=9
8a	biſt,
8f#	ſo
8a	wahr
8f#	ich
8a	Weidmann
8dd	.
=10	=10
4b	bin,
4r}	.
{8dd	al-
8b	-ler
=11	=11
(4a	Far-
8b/)	.
8a	-ben
8g	Kö-
8a	-ni-
=12	=12
4f#	-gin.
4r}	.
==	==
!!!AGN: Natur - Lied
!!!ONB: ESAC (Essen Associative Code) Database: ERK3
!!!AMT: simple triple
!!!AIN: vox
!!!EED: Helmut Schaffrath
!!!EEV: 1.0
!!!GTL: Vermischter Inhalt.
!!!URL-scan: https://rosdok.uni-rostock.de/mcrviewer/recordIdentifier/rosdok_ppn745177999/iview2/phys_0573.iview2?x=-4.404412318552431&y=1470.1787788961083&scale=0.6456904138606621&rotation=0&layout=singlePageLayout
!!!ENC: Anna Maria Matuszewska
!!!EEV: 2025/08/01
*-	*-
